evolvere-2-blue-mono/apps/16/distributor-logo-debian.svg

<?xml version="1.0" encoding="UTF-8" standalone="no"?>
<!-- Created with Inkscape (http://www.inkscape.org/) -->

<svg
   xmlns:dc="http://purl.org/dc/elements/1.1/"
   xmlns:cc="http://creativecommons.org/ns#"
   xmlns:rdf="http://www.w3.org/1999/02/22-rdf-syntax-ns#"
   xmlns:svg="http://www.w3.org/2000/svg"
   xmlns="http://www.w3.org/2000/svg"
   xmlns:sodipodi="http://sodipodi.sourceforge.net/DTD/sodipodi-0.dtd"
   xmlns:inkscape="http://www.inkscape.org/namespaces/inkscape"
   width="15.999998"
   height="15.999998"
   id="svg13094"
   version="1.1"
   inkscape:version="0.48.4 r9939"
   sodipodi:docname="distributor-logo-debian.svg">
  <sodipodi:namedview
     id="base"
     pagecolor="#ffffff"
     bordercolor="#666666"
     borderopacity="1.0"
     inkscape:pageopacity="0.0"
     inkscape:pageshadow="2"
     inkscape:zoom="32"
     inkscape:cx="13.254165"
     inkscape:cy="8.7978973"
     inkscape:document-units="px"
     inkscape:current-layer="layer1"
     showgrid="true"
     inkscape:snap-bbox="true"
     inkscape:bbox-paths="true"
     inkscape:bbox-nodes="true"
     inkscape:snap-bbox-edge-midpoints="true"
     inkscape:snap-bbox-midpoints="true"
     inkscape:object-paths="true"
     inkscape:snap-intersection-paths="true"
     inkscape:object-nodes="true"
     inkscape:snap-smooth-nodes="true"
     inkscape:snap-midpoints="true"
     inkscape:snap-object-midpoints="true"
     inkscape:snap-center="true"
     showguides="true"
     inkscape:guide-bbox="true"
     inkscape:window-width="1920"
     inkscape:window-height="1016"
     inkscape:window-x="-5"
     inkscape:window-y="27"
     inkscape:window-maximized="1"
     inkscape:snap-global="false"
     fit-margin-top="0"
     fit-margin-left="0"
     fit-margin-right="0"
     fit-margin-bottom="0"
     showborder="true"
     inkscape:showpageshadow="false">
    <inkscape:grid
       type="xygrid"
       id="grid3131"
       empspacing="5"
       visible="true"
       enabled="true"
       snapvisiblegridlinesonly="true"
       originx="0.0002329375px"
       originy="10.999838px" />
  </sodipodi:namedview>
  <defs
     id="defs13096" />
  <metadata
     id="metadata13099">
    <rdf:RDF>
      <cc:Work
         rdf:about="">
        <dc:format>image/svg+xml</dc:format>
        <dc:type
           rdf:resource="http://purl.org/dc/dcmitype/StillImage" />
        <dc:title />
      </cc:Work>
    </rdf:RDF>
  </metadata>
  <g
     transform="translate(9398.6162,-5035.9922)"
     id="layer1"
     inkscape:groupmode="layer"
     inkscape:label="Camada 1">
    <g
       transform="matrix(0.03454656,0,0,0.03454656,-9257.2175,5031.4943)"
       id="22"
       inkscape:label="#g3373">
      <g
         id="g3829-5" />
    </g>
    <path
       style="font-size:medium;font-style:normal;font-variant:normal;font-weight:normal;font-stretch:normal;text-indent:0;text-align:start;text-decoration:none;line-height:normal;letter-spacing:normal;word-spacing:normal;text-transform:none;direction:ltr;block-progression:tb;writing-mode:lr-tb;text-anchor:start;baseline-shift:baseline;color:#000000;fill:#f1f3f5;fill-opacity:0.90288714000000003;fill-rule:nonzero;stroke:none;stroke-width:2;marker:none;visibility:visible;display:inline;overflow:visible;enable-background:accumulate;font-family:Sans;-inkscape-font-specification:Sans"
       d="M 7.921875,-0.125 C 5.869575,0.0273 4.1044,0.77255 2.875,2.15625 1.6466,3.53875 1.125325,5.229725 1.015625,6.953125 l 0,0.03125 C 0.918125,9.142775 1.4911,11.0113 2.4375,12.3125 c 0.945,1.2991 2.09665,2.1218 3.09375,2.625 0.9921,0.5008 1.8541,0.676 2.4375,0.75 0.5695,0.072 0.96875,0.03125 0.96875,0.03125 L 8.875,14.53125 c 0,0 -0.2586,0.03075 -0.75,-0.03125 C 7.6336,14.4377 6.916,14.27455 6.0625,13.84375 5.2091,13.41295 4.22245,12.6846 3.40625,11.5625 2.59015,10.4405 1.917,8.92365 2,7.09375 2.091,5.66325 2.7023,4.1792 3.75,3 4.7978,1.8208 6.2875,0.9397 8,0.8125 c 0.3085,-0.022 0.64615,-0.03 0.96875,0 1.4128,0.1696 2.76485,0.93055 3.71875,2.09375 0.954,1.1633 1.5077,2.7235 1.3125,4.3125 -0.1922,1.2991 -0.916,2.4395 -1.875,3.1875 -0.959,0.748 -2.157,1.10635 -3.3125,0.90625 C 7.7972,11.1126 6.9546,10.45075 6.4375,9.65625 5.9205,8.86175 5.71725,7.9212 5.90625,7.0625 6.09085,6.284 6.6141,5.67915 7.1875,5.34375 7.761,5.00835 8.4037,4.96825 8.9375,5.15625 9.4298,5.33355 9.76425,5.7302 9.90625,6.125 c 0.0712,0.1974 0.078862,0.4185125 0.0625,0.59375 0.00392,0.00791 -0.00392,0.022925 0,0.03125 C 9.8478138,7.5406483 9.1278663,7.5184167 9.0351563,7.4257813 8.9771486,7.3932918 8.8679966,7.2978865 8.8828125,7.1601562 8.2431566,6.8565879 8.3110602,8.5724557 9.4101563,8.484375 9.7584563,8.441875 10.34,8.4742 10.75,7.875 L 10.78125,7.84375 C 11.17755,7.23295 11.2585,6.43725 11,5.71875 L 11,5.6875 C 10.7362,4.9751 10.169275,4.4392 9.296875,4.125 8.415775,3.8147 7.572575,3.837825 6.734375,4.328125 5.895375,4.818825 5.05355,5.63275 4.78125,6.78125 l 0,0.03125 C 4.51305,8.0309 4.7551,9.29525 5.4375,10.34375 6.1201,11.39275 7.2041,12.2325 8.5625,12.5 l 0.03125,0.03125 c 1.5077,0.2613 3.02475,-0.22495 4.21875,-1.15625 1.1941,-0.9314 1.928975,-2.2954 2.171875,-3.9375 l 0,-0.03125 C 15.226275,5.43745 14.73955,3.5221 13.59375,2.125 12.44825,0.7282 10.840575,0.1453 9.109375,-0.0625 l -0.03125,0 C 8.690625,-0.0987 8.291975,-0.153 7.921875,-0.125 z"
       transform="translate(-9398.6162,5035.9922)"
       id="path17"
       inkscape:connector-curvature="0"
       sodipodi:nodetypes="ccccccccccccccccscsccccccccccccccccccccccscccccc" />
    <path
       style="color:#000000;fill:#27303a;fill-opacity:0.753280819999999968;fill-rule:nonzero;stroke:none;stroke-width:2.96753144;marker:none;visibility:visible;display:inline;overflow:visible;enable-background:accumulate"
       d="M 8 0.8125 C 6.28752 0.93962362 4.7977587 1.8207859 3.75 3 C 2.7022424 4.1792142 2.0910429 5.6632382 2 7.09375 C 1.9172884 8.9236695 2.5900683 10.440415 3.40625 11.5625 C 4.2224328 12.684585 5.2090279 13.412957 6.0625 13.84375 C 6.9159721 14.274541 7.6335863 14.43771 8.125 14.5 C 8.616413 14.562287 8.875 14.53125 8.875 14.53125 C 8.875 14.53125 8.6217041 14.484759 8.15625 14.34375 C 7.6907959 14.202743 7.0217786 13.952186 6.28125 13.4375 C 5.5407202 12.922814 4.7193676 12.161982 4.09375 11.09375 C 3.4681335 10.025518 3.0128506 8.6388749 3.21875 7.1875 C 3.3522734 6.0648787 3.9113269 4.9447331 4.78125 4.03125 C 5.6511731 3.1177669 6.8302116 2.4163341 8.09375 2.34375 C 8.321345 2.3306758 8.5481773 2.3441193 8.78125 2.375 C 9.7834968 2.4703705 10.829367 3.0441778 11.59375 3.90625 C 12.358133 4.7683222 12.860344 5.9160476 12.71875 7.0625 C 12.638128 7.9782811 12.110117 8.8687255 11.40625 9.5 C 10.702383 10.131276 9.8020963 10.507239 8.9375 10.375 C 8.1983317 10.286164 7.4955765 9.8165212 7.03125 9.21875 C 6.5669235 8.6209783 6.3421549 7.8664723 6.46875 7.1875 C 6.5661054 6.5923941 6.9561898 6.0757614 7.40625 5.75 C 7.8563105 5.4242385 8.3924378 5.3012502 8.84375 5.4375 C 9.2385701 5.5521303 9.5598817 5.8913679 9.71875 6.21875 C 9.8776183 6.5461321 9.8592855 6.8825497 9.71875 7.125 C 9.6162145 7.315897 9.410119 7.4007108 9.25 7.4375 C 9.165827 7.4577213 9.0890576 7.438229 9.03125 7.40625 C 9.0923007 7.4553452 9.1368841 7.4821867 9.25 7.46875 C 9.4217842 7.4477759 9.6626848 7.3752085 9.8125 7.15625 C 9.9840142 6.8919058 10.048286 6.5197841 9.90625 6.125 C 9.7642139 5.7302159 9.3985043 5.3335765 8.90625 5.15625 C 8.3724132 4.9682624 7.7609345 5.0083539 7.1875 5.34375 C 6.614066 5.6791461 6.0908101 6.2840106 5.90625 7.0625 C 5.7172626 7.92115 5.9204531 8.8617441 6.4375 9.65625 C 6.9545469 10.450756 7.7971982 11.112618 8.8125 11.3125 C 9.9679697 11.512686 11.166005 11.154258 12.125 10.40625 C 13.083995 9.6582404 13.776629 8.5178008 13.96875 7.21875 C 14.164015 5.6297044 13.641471 4.0694676 12.6875 2.90625 C 11.733529 1.7430323 10.381529 0.98207242 8.96875 0.8125 C 8.6461852 0.782424 8.3084608 0.78959789 8 0.8125 z "
       transform="translate(-9398.6162,5035.9922)"
       id="path3905" />
  </g>
</svg>

<?xml version="1.0" encoding="UTF-8"?>
<!-- Created with Inkscape (http://www.inkscape.org/) -->
<svg width="16" height="16" version="1.1" xmlns="http://www.w3.org/2000/svg" xmlns:cc="http://creativecommons.org/ns#" xmlns:dc="http://purl.org/dc/elements/1.1/" xmlns:rdf="http://www.w3.org/1999/02/22-rdf-syntax-ns#">
	<defs>
		<style id="current-color-scheme" type="text/css">.ColorScheme-Text {color:#090d11;}.ColorScheme-Background{color:#ffffff;}</style>
	</defs>
	<metadata>
		<rdf:RDF>
			<cc:Work rdf:about="">
				<dc:format>image/svg+xml</dc:format>
				<dc:type rdf:resource="http://purl.org/dc/dcmitype/StillImage"/>
			</cc:Work>
		</rdf:RDF>
	</metadata>
	<g transform="translate(9398.6 -5036)">
		<path class="ColorScheme-Background" transform="translate(-9398.6 5036)" d="m8.2051-0.13281c-0.095473-0.0017188-0.19068 8.125e-4 -0.2832 0.0078125-2.0523 0.1523-3.8175 0.89755-5.0469 2.2812-1.2284 1.3825-1.7497 3.0735-1.8594 4.7969v0.03125c-0.0975 2.1584 0.47548 4.0269 1.4219 5.3281 0.945 1.2991 2.0966 2.1218 3.0938 2.625 0.9921 0.5008 1.8541 0.676 2.4375 0.75 0.5695 0.072 0.96875 0.03125 0.96875 0.03125l-0.0625-1.1875s-0.2586 0.03075-0.75-0.03125c-0.4914-0.0623-1.209-0.22545-2.0625-0.65625-0.8534-0.4308-1.84-1.1592-2.6562-2.2812-0.8161-1.122-1.4892-2.6388-1.4062-4.4688 0.091-1.4305 0.7023-2.9146 1.75-4.0938 1.0478-1.1792 2.5375-2.0603 4.25-2.1875 0.3085-0.022 0.64615-0.03 0.96875 0 1.4128 0.1696 2.7648 0.93055 3.7188 2.0938 0.954 1.1633 1.5077 2.7235 1.3125 4.3125-0.1922 1.2991-0.916 2.4395-1.875 3.1875s-2.157 1.1064-3.3125 0.90625c-1.0153-0.1999-1.8579-0.86175-2.375-1.6562-0.517-0.7945-0.72025-1.735-0.53125-2.5938 0.1846-0.7785 0.70785-1.3834 1.2812-1.7188 0.5735-0.3354 1.2162-0.3755 1.75-0.1875 0.4923 0.1773 0.82675 0.57395 0.96875 0.96875 0.0712 0.1974 0.078862 0.41851 0.0625 0.59375 0.00392 0.00791-0.00392 0.022925 0 0.03125-0.12094 0.79065-0.84088 0.76842-0.93359 0.67578-0.058008-0.032489-0.16716-0.12789-0.15234-0.26562-0.63966-0.30357-0.57175 1.4123 0.52734 1.3242 0.3483-0.0425 0.92984-0.010175 1.3398-0.60938l0.03125-0.03125c0.3963-0.6108 0.47725-1.4065 0.21875-2.125v-0.03125c-0.2638-0.7124-0.83072-1.2483-1.7031-1.5625-0.8811-0.3103-1.7243-0.28718-2.5625 0.20312-0.839 0.4907-1.6808 1.3046-1.9531 2.4531v0.03125c-0.2682 1.2184-0.02615 2.4828 0.65625 3.5312 0.6826 1.049 1.7666 1.8888 3.125 2.1562l0.03125 0.03125c1.5077 0.2613 3.0248-0.22495 4.2188-1.1562 1.1941-0.9314 1.929-2.2954 2.1719-3.9375v-0.03125c0.2419-1.9688-0.24482-3.8842-1.3906-5.2812-1.1455-1.3968-2.7532-1.9797-4.4844-2.1875h-0.03125c-0.29062-0.02715-0.58663-0.065156-0.87305-0.070312z" style="fill-opacity:.5;fill:currentColor"/>
		<path id="c" class="ColorScheme-Text" transform="translate(-9398.6 5036)" d="m8.4785 0.79297c-0.16331 8.9674e-4 -0.32429 0.0080802-0.47852 0.019531-1.7125 0.12712-3.2022 1.0083-4.25 2.1875s-1.659 2.6632-1.75 4.0938c-0.082712 1.8299 0.59007 3.3467 1.4062 4.4688 0.81618 1.1221 1.8028 1.8505 2.6562 2.2812 0.85347 0.43079 1.5711 0.59396 2.0625 0.65625 0.49141 0.06229 0.75 0.03125 0.75 0.03125s-0.2533-0.04649-0.71875-0.1875-1.1345-0.39156-1.875-0.90625c-0.74053-0.51469-1.5619-1.2755-2.1875-2.3438-0.62562-1.0682-1.0809-2.4549-0.875-3.9062 0.13352-1.1226 0.69258-2.2428 1.5625-3.1562s2.049-1.6149 3.3125-1.6875c0.2276-0.013074 0.45443 3.693e-4 0.6875 0.03125 1.0022 0.095371 2.0481 0.66918 2.8125 1.5312s1.2666 2.0098 1.125 3.1562c-0.080622 0.91578-0.60863 1.8062-1.3125 2.4375-0.70387 0.63128-1.6042 1.0072-2.4688 0.875-0.73917-0.088836-1.4419-0.55848-1.9062-1.1562-0.46433-0.59777-0.6891-1.3523-0.5625-2.0312 0.097355-0.59511 0.48744-1.1117 0.9375-1.4375 0.45006-0.32576 0.98619-0.44875 1.4375-0.3125 0.39482 0.11463 0.71613 0.45387 0.875 0.78125s0.14054 0.6638 0 0.90625c-0.10254 0.1909-0.30863 0.27571-0.46875 0.3125-0.084173 0.020221-0.16094 7.29e-4 -0.21875-0.03125 0.061051 0.049095 0.10563 0.075937 0.21875 0.0625 0.17178-0.020974 0.41268-0.093542 0.5625-0.3125 0.17151-0.26434 0.23579-0.63647 0.09375-1.0312-0.14204-0.39478-0.50775-0.79142-1-0.96875-0.53384-0.18799-1.1453-0.1479-1.7188 0.1875-0.57343 0.3354-1.0967 0.94026-1.2812 1.7188-0.18899 0.85865 0.014203 1.7992 0.53125 2.5938 0.51705 0.79451 1.3597 1.4564 2.375 1.6562 1.1555 0.20019 2.3535-0.15824 3.3125-0.90625s1.6516-1.8884 1.8438-3.1875c0.19526-1.589-0.32728-3.1493-1.2812-4.3125-0.95397-1.1632-2.306-1.9242-3.7188-2.0938-0.16128-0.015038-0.32693-0.020428-0.49023-0.019531z" style="fill-opacity:.75;fill:currentColor"/>
	</g>
</svg>
